X: 14018
T: DICK GASSETT'S
C: Bob McQuillen Nov.'09
B: Bob's Note Book 14 #18
%R: reel
%D:2009
Z: 2020 John Chambers <jc:trillian.mit.edu>
M: C
L: 1/8
K: G
Bd \
| g2dB cdeg | dBAG E2GE | D2GB AGBd | egag fdef |
| g2dB cdeg | dedB AGED | G2GE DEGB | dBAB G2  :|
|: Bd \
| e2ce d2BG | ABcd BGBd | eceg d2Bd | egag fdgf |
| eceg d2BG | ABcd B2BA | GBdB Acec | Bdgf g2  :|
%%begintext align
%% With all good wishes to a good Newport
%% friend - Thanks for your TLC, Dick!
%%endtext

%%sep 1 1 500

%%sep 1 1 500

